X:1
T:Lorelie
T:A Reverie
T:Maude Gilmore
T:Copyright 1911 by Chas. L. Johnson
T:Copyright 1911 by Chas. L. Johnson
T:Copyright 1911 by Chas. L. Johnson
T:Copyright 1911 by Chas. L. Johnson
Z:Copyright 1911 by Chas. L. Johnson
%%score { ( 1 3 4 ) | 2 }
L:1/8
Q:1/4=100
M:3/4
K:F
V:1 treble nm="Piano" snm="Pno."
V:3 treble 
V:4 treble 
V:2 bass 
V:1
"^In loving rememberance of my brother Frank Gilmore""^Slow"!mf! ([Afa][Bgb]) | %1
 !arpeggio![cac']2 !arpeggio![faf']3 !arpeggio![cac'] | %2
 !arpeggio![=Bf=b]2 !arpeggio![fbf']3 !arpeggio![Bfb] | %3
 !arpeggio![_Be_b]2 !arpeggio![ebe']3 !arpeggio![cec'] | %4
 !arpeggio![Afa]4 !arpeggio![cfc']!arpeggio![^cf^c'] | %5
 !arpeggio![dfbd']2 !arpeggio![fbd'f']3 !arpeggio![dfbd'] | %6
 !arpeggio![_dfb_d']2 !arpeggio![fbd'f']3 !arpeggio![dfbd'] | !arpeggio![cfac']6- | %8
 [cfac']4 !arpeggio![dfad']!arpeggio![cfac'] | !arpeggio![Beb]2 !arpeggio![ebe']3 !arpeggio![Beb] | %10
 !arpeggio![A_ea]2 !arpeggio![ea_e']3 !arpeggio![Aea] | !arpeggio![Beb]6- | %12
 [Beb]4 !arpeggio![cec']!arpeggio![Beb] | !arpeggio![Afa]2 !arpeggio![faf']3 !arpeggio![Afa] | %14
 !arpeggio![_Af_a]2 !arpeggio![faf']3 !arpeggio![Afa] | [=Af=a]6- | %16
 [Afa]4 !arpeggio![Afa]!arpeggio![Bgb] | !arpeggio![cac']2 !arpeggio![faf']3 !arpeggio![cac'] | %18
 !arpeggio![=Bf=b]2 !arpeggio![fbf']3 !arpeggio![Bfb] | %19
 !arpeggio![_Be_b]2 !arpeggio![ebe']3 !arpeggio![cec'] | %20
 !arpeggio![Afa]4 !arpeggio![cfc']!arpeggio![^cf^c'] | %21
 !arpeggio![dfbd']2 !arpeggio![fbd'f']3 !arpeggio![fbd'f'] | %22
 !arpeggio![fbd'f']2 !arpeggio![ebe']2 !arpeggio![dbd']2 | !arpeggio![^ca^c']6- | %24
 [cac']4 [Aa][Aa] | !arpeggio![d^fd']2 !arpeggio![_ef_e']2 !arpeggio![dfd']2 | %26
 !arpeggio![G=Bg]4 !arpeggio![dfd']!arpeggio![_df_d'] | %27
 !arpeggio![c_bc']2 !arpeggio![dbd']2 !arpeggio![cbc']2 | %28
 !arpeggio![FAf]4 !arpeggio![EAe]!arpeggio![FAf] | !arpeggio![A=Ba]2 (([^C^c]2 [Dd]2)) | %30
 !arpeggio![Gceg]4 !arpeggio![Ff]2 | !arpeggio![FAcf]2 !arpeggio![Acfa]2 !arpeggio![cfac']2 | %32
 !arpeggio![fac'f']4[I:staff +1] (A,_A,) ||!f! (G,2 =B,2 D2) | G,4 (A,_A,) | G,2 (C2 E2) | %36
 G,4 (G,^G,) |[I:staff -1] A,4 (A,_A,) | G,4 (G,^F,) | =F,4 (A,=B,) | E,4[I:staff +1] (A,_A,) | %41
 (G,2 =B,2 D2) | G,4 (A,_A,) | G,2 C2 E2 | G,4 (G,^G,) | A,2 C2 F2 | [G,E]2 [^F,^D]2 [=F,=D]2 | %47
 [E,C]6- | [E,C]4[I:staff -1] !arpeggio![Afa]!arpeggio![_Bg_b] | %49
!mf! !arpeggio![cac']2 !arpeggio![faf']3 !arpeggio![cac'] | %50
 !arpeggio![=Bf=b]2 !arpeggio![fbf']3 !arpeggio![Bfb] | %51
 !arpeggio![_Be_b]2 !arpeggio![ebe']3 !arpeggio![cec'] | %52
 !arpeggio![Afa]4 !arpeggio![cfc']!arpeggio![^cf^c'] | %53
 !arpeggio![dfbd']2 !arpeggio![fbd'f']3 !arpeggio![dfbd'] | %54
 !arpeggio![_dfb_d']2 !arpeggio![fbd'f']3 !arpeggio![dfbd'] | !arpeggio![cfac']6- | %56
 [cfac']4 !arpeggio![dfad']!arpeggio![cfac'] | !arpeggio![Beb]2 !arpeggio![ebe']3 !arpeggio![Beb] | %58
 !arpeggio![A_ea]2 !arpeggio![ea_e']3 !arpeggio![Aea] | !arpeggio![B=eb]6- | %60
 [Beb]4 !arpeggio![cec']!arpeggio![Beb] | !arpeggio![Afa]2 !arpeggio![faf']3 !arpeggio![Afa] | %62
 !arpeggio![_Af_a]2 !arpeggio![faf']3 !arpeggio![Afa] | [=Af=a]6- | [Afa]4 ([Afa][Bgb]) | %65
 !arpeggio![cac']2 !arpeggio![faf']3 !arpeggio![cac'] | %66
 !arpeggio![=Bf=b]2 !arpeggio![fbf']3 !arpeggio![Bfb] | %67
 !arpeggio![_Be_b]2 !arpeggio![ebe']3 !arpeggio![cec'] | %68
 !arpeggio![Afa]4 !arpeggio![cfc']!arpeggio![^cf^c'] | %69
 !arpeggio![dfbd']2 !arpeggio![fbd'f']3 !arpeggio![fbd'f'] | %70
 !arpeggio![fbd'f']2 !arpeggio![ebe']2 !arpeggio![dbd']2 | [^ca^c']6- | [cac']4 [Aa][Aa] | %73
 [d^fd']2 [_ef_e']2 [dfd']2 | [G=Bg]4 [dfd'][_df_d'] | [c_bc']2 [dbd']2 [cbc']2 | %76
 [FAf]4 [EAe][FAf] | [A=Ba]2 [^C^c]2 [Dd]2 | [Gceg]4 [Ff]2 | %79
 !arpeggio![FAcf]2 !arpeggio![Acfa]2 !arpeggio![cfac']2 | !arpeggio![fac'f']4 z2 || %81
!f! z [A,DFA][A,DFA] z [A,DFA]2 | z [A,^CG][A,CG] z z2 | z [A,^CG][A,CG] z [A,CG]2 | %84
 z [A,DF][A,DF] z z2 | z [Adf][Adf] z [Ac^f]2 | z [DGc][DGc] z [DGB]2 | z [DFA][DFA] z [^CGA]2 | %88
 [DFAd]2[Q:1/4=50] !fermata![CBc]2 !arpeggio!!fermata![Afa]!arpeggio!!fermata![Bgb] || %89
!mf![Q:1/4=100] !arpeggio![cac']2 !arpeggio![faf']3 !arpeggio![cac'] | %90
 !arpeggio![=Bf=b]2 !arpeggio![fbf']3 !arpeggio![Bfb] | %91
 !arpeggio![_Be_b]2 !arpeggio![ebe']3 !arpeggio![cec'] | %92
 !arpeggio![Afa]4 !arpeggio![cfc']!arpeggio![^cf^c'] | %93
 !arpeggio![dfbd']2 !arpeggio![fbd'f']3 !arpeggio![dfbd'] | %94
 !arpeggio![_dfb_d']2 !arpeggio![fbd'f']3 !arpeggio![dfbd'] | !arpeggio![cfac']6- | %96
 [cfac']4 !arpeggio![dfad']!arpeggio![cfac'] | !arpeggio![Beb]2 !arpeggio![ebe']3 !arpeggio![Beb] | %98
 !arpeggio![A_ea]2 !arpeggio![ea_e']3 !arpeggio![Aea] | !arpeggio![Beb]6- | %100
 [Beb]4 !arpeggio![cec']!arpeggio![Beb] | !arpeggio![Afa]2 !arpeggio![faf']3 !arpeggio![Afa] | %102
 !arpeggio![_Af_a]2 !arpeggio![faf']3 !arpeggio![Afa] | [=Af=a]6- | %104
 [Afa]4 !arpeggio![Afa]!arpeggio![Bgb] | !arpeggio![cac']2 !arpeggio![faf']3 !arpeggio![cac'] | %106
 !arpeggio![=Bf=b]2 !arpeggio![fbf']3 !arpeggio![Bfb] | %107
 !arpeggio![_Be_b]2 !arpeggio![ebe']3 !arpeggio![cec'] | %108
 !arpeggio![Afa]4 !arpeggio![cfc']!arpeggio![^cf^c'] | %109
 !arpeggio![dfbd']2 !arpeggio![fbd'f']3 !arpeggio![fbd'f'] | %110
 !arpeggio![fbd'f']2 !arpeggio![ebe']2 !arpeggio![dbd']2 | [^ca^c']6- | [cac']4 [Aa][Aa] | %113
 !arpeggio![d^fd']2 !arpeggio![_ef_e']2 !arpeggio![dfd']2 | %114
 !arpeggio![G=Bg]4 !arpeggio![dfd']!arpeggio![_df_d'] | %115
 !arpeggio![c_bc']2 !arpeggio![dbd']2 !arpeggio![cbc']2 | !arpeggio![FAf]4 [EAe][FAf] | %117
 !arpeggio![A=Ba]2 [^C^c]2 [Dd]2 | [Gceg]4 [Ff]2 | %119
 !arpeggio![FAcf]2 !arpeggio![Acfa]2 !arpeggio![cfac']2 | [fac'f']4 (c'^c') | d'2 f'2 d'2 | %122
!<(! _d'2 f'2 g'2!<)! |!f! [ac'a']6- | [ac'a']4 (c^c) | d2 f2 d2 |!<(! _d2 f2 g2!<)! |!ff! [ca]6- | %128
 [ca]2 z2 z2 |] %129
V:2
 z2 | [F,,F,]2 [A,CF]2 [A,CF]2 | [^G,,^G,]2 [G,=B,F]2 [G,B,F]2 | [=G,,=G,]2 [B,CE]2 [B,CE]2 | %4
 [F,,F,]2 [A,CF]2 z2 | B,,2 [F,B,D]2 [F,B,D]2 | B,,2 [F,B,_D]2 [F,B,D]2 | %7
 [F,,F,]2 [A,CF]2 [A,CF]2 | [C,,C,]2 [A,CF]2 z2 | [G,,G,]2 [B,CE]2 [B,CE]2 | %10
 [^F,,^F,]2 [F,A,_E]2 [F,A,E]2 | [G,,G,]2 ([E,B,C]2 [F,B,D]2 | [G,B,E]2 [F,B,D]2 [E,B,C]2) | %13
 [F,,F,]2 [A,CF]2 [A,CF]2 | [_D,,_D,]2 [_A,_DF]2 [A,DF]2 | [F,,F,]2 [=A,CF]2 [A,CF]2 | %16
 [C,,C,]2 [A,CF]2 z2 | [F,,F,]2 [A,CF]2 [A,CF]2 | [^G,,^G,]2 [G,=B,F]2 [G,B,F]2 | %19
 [=G,,=G,]2 [_B,CE]2 [B,CE]2 | [F,,F,]2 [A,CF]2 z2 | B,,2 [F,B,D]2 [F,B,D]2 |[K:treble] F2 G2 ^G2 | %23
 (A2 E2 ^C2 | A,4) z2 |[K:bass] [D,,D,]2 [D,^F,C]2 [D,F,C]2 | [G,,G,]2 [G,=B,=F]4 | %27
 [C,,C,]2 [_B,CE]2 [B,CE]2 | [D,,D,]2 [F,A,D]2 z2 | [G,,,G,,]2 [F,G,=B,]4 | [E,,E,]2 [_B,CE]2 z2 | %31
 (F,,C,F,A,CF) |[I:staff -1] A4[I:staff +1] z2 || [G,,,G,,]6 | [G,,,G,,]6 | [C,,C,]6 | [E,,E,]6 | %37
 [F,,F,]6 | [E,,E,]6 | [D,,D,]6 | [C,,C,]4 z2 | [G,,,G,,]6 | [G,,,G,,]6 | [C,,C,]6 | [E,,E,]6 | %45
 F,,6 | G,,6 | C,,2 ^F,,2 G,,2 | C,4 z2 | [F,,F,]2 [A,CF]2 [A,CF]2 | %50
 [^G,,^G,]2 [G,=B,F]2 [G,B,F]2 | [=G,,=G,]2 [_B,CE]2 [B,CE]2 | [F,,F,]2 [A,CF]2 z2 | %53
 B,,2 [F,B,D]2 [F,B,D]2 | B,,2 [F,B,_D]2 [F,B,D]2 | [F,,F,]2 [A,CF]2 [A,CF]2 | %56
 [C,,C,]2 [A,CF]2 z2 | [G,,G,]2 [B,CE]2 [B,CE]2 | [^F,,^F,]2 [F,A,_E]2 [F,A,E]2 | %59
 [G,,G,]2 ([E,B,C]2 [F,B,D]2 | [G,B,E]2) [F,B,D]2 [E,B,C]2 | [F,,F,]2 [A,CF]2 [A,CF]2 | %62
 [_D,,_D,]2 [_A,_DF]2 [A,DF]2 | [F,,F,]2 [=A,CF]2 [A,CF]2 | [C,,C,]2 [A,CF]2 z2 | %65
 [F,,F,]2 [A,CF]2 [A,CF]2 | [^G,,^G,]2 [G,=B,F]2 [G,B,F]2 | [=G,,=G,]2 [B,CE]2 [B,CE]2 | %68
 [F,,F,]2 [A,CF]2 z2 | B,,2 [F,B,D]2 [F,B,D]2 |[K:treble] F2 G2 ^G2 | A2 E2 ^C2 | A,4 z2 | %73
[K:bass] [D,,D,]2 [D,^F,C]2 [D,F,C]2 | [G,,G,]2 [G,=B,F]4 | [C,,C,]2 [B,CE]2 [B,CE]2 | %76
 [D,,D,]2 [F,A,D]2 z2 | [G,,,G,,]2 [F,G,=B,]4 | [E,,E,]2 [_B,CE]2 z2 | (F,,C,F,A,CF) | %80
[I:staff -1] A4[I:staff +1] x2 || [D,,D,]3 [E,,E,] [F,,F,][D,,D,] | [E,,E,]4 [A,,,A,,]2 | %83
 [E,,E,]3 [F,,F,] [G,,G,][E,,E,] | [F,,F,]4 [A,,A,]2 | [F,F]3 [E,E] [D,D][A,,A,] | %86
 [C,C]4 [B,,B,]2 | [A,,A,]3 [A,,A,] [B,,B,][A,,A,] | [D,,D,]2 !arpeggio!!fermata![C,,G,,E,]2 z2 || %89
 [F,,F,]2 [A,CF]2 [A,CF]2 | [^G,,^G,]2 [G,=B,F]2 [G,B,F]2 | [=G,,=G,]2 [_B,CE]2 [B,CE]2 | %92
 [F,,F,]2 [A,CF]2 z2 | B,,2 [F,B,D]2 [F,B,D]2 | B,,2 [F,B,_D]2 [F,B,D]2 | %95
 [F,,F,]2 [A,CF]2 [A,CF]2 | [C,,C,]2 [A,CF]2 z2 | [G,,G,]2 [B,CE]2 [B,CE]2 | %98
 [^F,,^F,]2 [F,A,_E]2 [F,A,E]2 | [G,,G,]2 [E,B,C]2 [F,B,D]2 | [G,B,E]2 [F,B,D]2 [E,B,C]2 | %101
 [F,,F,]2 [A,CF]2 [A,CF]2 | [_D,,_D,]2 [_A,_DF]2 [A,DF]2 | [F,,F,]2 [=A,CF]2 [A,CF]2 | %104
 [C,,C,]2 [A,CF]2 z2 | [F,,F,]2 [A,CF]2 [A,CF]2 | [^G,,^G,]2 [G,=B,F]2 [G,B,F]2 | %107
 [=G,,=G,]2 [_B,CE]2 [B,CE]2 | [F,,F,]2 [A,CF]2 z2 | B,,2 [F,B,D]2 [F,B,D]2 | %110
[K:treble] (F2 G2 ^G2) | A2 E2 ^C2 | A,4 z2 |[K:bass] [D,,D,]2 [D,^F,C]2 [D,F,C]2 | %114
 [G,,G,]2 [G,=B,F]4 | [C,,C,]2 [_B,CE]2 [B,CE]2 | [D,,D,]2 [F,A,D]2 z2 | [G,,,G,,]2 [F,G,=B,]4 | %118
 [E,,E,]2 [_B,CE]2 z2 | (F,,C, F,A,CF) |[I:staff -1] A4[I:staff +1] z2 |[K:treble] [FBd]6 | %122
 [FB_d]4 [FBd]2 | [Fc]6- | [Fc]4 z2 |[K:bass] [F,B,D]6 | [F,B,_D]4 [F,B,D]2 | (F,,C,F,A,CF) | %128
[I:staff -1] A2[I:staff +1] z2 z2 |] %129
V:3
 x2 | x6 | x6 | x6 | x6 | x6 | x6 | x6 | x6 | x6 | x6 | x6 | x6 | x6 | x6 | x6 | x6 | x6 | x6 | %19
 x6 | x6 | x6 | x6 | x6 | x6 | x6 | x6 | x6 | x6 | x6 | x6 | x6 | x6 || %33
[I:staff +1] z2[I:staff -1] [FG=B]2 [FGB]2 |[I:staff +1] z2[I:staff -1] [FG=B]4 | %35
[I:staff +1] z2[I:staff -1] [Gce]2 [Gce]2 |[I:staff +1] z2[I:staff -1] [Gce]2[I:staff +1] z2 | x6 | %38
 x6 | x6 | x6 | z2[I:staff -1] [FG=B]2 [FGB]2 |[I:staff +1] z2[I:staff -1] [FG=B]4 | %43
[I:staff +1] z2[I:staff -1] [Gce]2 [Gce]2 |[I:staff +1] z2[I:staff -1] [Gce]2[I:staff +1] z2 | %45
 z2[I:staff -1] [FAc]2 [Acf]2 |[I:staff +1] z2[I:staff -1] A2 =B2 | x6 | x6 | x6 | x6 | x6 | x6 | %53
 x6 | x6 | x6 | x6 | x6 | x6 | x6 | x6 | x6 | x6 | x6 | x6 | x6 | x6 | x6 | x6 | x6 | x6 | x6 | %72
 x6 | x6 | x6 | x6 | x6 | x6 | x6 | x6 | x6 || x6 | x6 | x6 | x6 | x6 | x6 | x6 | x6 || x6 | x6 | %91
 x6 | x6 | x6 | x6 | x6 | x6 | x6 | x6 | x6 | x6 | x6 | x6 | x6 | x6 | x6 | x6 | x6 | x6 | x6 | %110
 x6 | x6 | x6 | x6 | x6 | x6 | x6 | x6 | x6 | x6 | x6 | x6 | x6 | x6 | x6 | x6 | x6 | x6 | x6 |] %129
V:4
 x2 | x6 | x6 | x6 | x6 | x6 | x6 | x6 | x6 | x6 | x6 | x6 | x6 | x6 | x6 | x6 | x6 | x6 | x6 | %19
 x6 | x6 | x6 | x6 | x6 | x6 | x6 | x6 | x6 | x6 | x6 | x6 | x6 | x6 || x6 | x6 | x6 | x6 | %37
 z2 [CF]2 z2 | z2 [CE]2 z2 | z2 [=B,D]2 z2 | C2 G,2 x2 | x6 | x6 | x6 | x6 | x6 | x6 | x6 | x6 | %49
 x6 | x6 | x6 | x6 | x6 | x6 | x6 | x6 | x6 | x6 | x6 | x6 | x6 | x6 | x6 | x6 | x6 | x6 | x6 | %68
 x6 | x6 | x6 | x6 | x6 | x6 | x6 | x6 | x6 | x6 | x6 | x6 | x6 || x6 | x6 | x6 | x6 | x6 | x6 | %87
 x6 | x6 || x6 | x6 | x6 | x6 | x6 | x6 | x6 | x6 | x6 | x6 | x6 | x6 | x6 | x6 | x6 | x6 | x6 | %106
 x6 | x6 | x6 | x6 | x6 | x6 | x6 | x6 | x6 | x6 | x6 | x6 | x6 | x6 | x6 | [fb]6 | [fb]4 [gb]2 | %123
 x6 | x6 | [FB]6 | [FB]4 [GB]2 | A6 | x6 |] %129

